build/img/icon-search.svg

<svg viewBox="0 0 16 16" xmlns="http://www.w3.org/2000/svg">
<path d="M12.6266 11.5128L16 14.8855L14.8855 16L11.5128 12.6266C10.2579 13.6325 8.69706 14.1797 7.08871 14.1774C3.17574 14.1774 0 11.0017 0 7.08871C0 3.17574 3.17574 0 7.08871 0C11.0017 0 14.1774 3.17574 14.1774 7.08871C14.1797 8.69706 13.6325 10.2579 12.6266 11.5128ZM11.0466 10.9284C12.0462 9.90047 12.6044 8.52254 12.6021 7.08871C12.6021 4.04214 10.1345 1.57527 7.08871 1.57527C4.04214 1.57527 1.57527 4.04214 1.57527 7.08871C1.57527 10.1345 4.04214 12.6021 7.08871 12.6021C8.52254 12.6044 9.90047 12.0462 10.9284 11.0466L11.0466 10.9284Z"/>
</svg>

<svg viewBox="0 0 16 16" xmlns="http://www.w3.org/2000/svg"><path d="M12.627 11.513L16 14.886 14.886 16l-3.373-3.373a7.057 7.057 0 01-4.424 1.55A7.091 7.091 0 010 7.09 7.091 7.091 0 017.089 0a7.091 7.091 0 017.088 7.089 7.057 7.057 0 01-1.55 4.424zm-1.58-.585a5.495 5.495 0 001.555-3.84A5.512 5.512 0 007.09 1.576 5.511 5.511 0 001.575 7.09a5.512 5.512 0 005.514 5.513 5.495 5.495 0 003.84-1.555l.118-.119z"/></svg>
